X: 1
T: Bold Huzzar, The
M: 4/4
L: 1/8
R: hornpipe
K: Amaj
|:cB|AGAc eAcA|BAGF E2d2|cdea fedc|BAGF EFGE|
AGAc eAcA|BAGF E2d2|cecA fdBG|A2A2 A2:|
|:cd|efec Acec|fdfd B2cd|efec AGAc|BAGF EFGE|
ABAc eAcA|BAGF E2d2|cdea fdBG|A2A2 A2:|
